dist/img/svg/i-socials-ok.svg

<svg width="16" height="16" viewBox="0 0 16 16" fill="none" xmlns="http://www.w3.org/2000/svg">
    <g clip-path="url(#clip0_84_15)">
        <path d="M7.21251 11.3111C5.97213 11.1817 4.85376 10.8762 3.89625 10.1274C3.77744 10.0342 3.65477 9.94438 3.54635 9.84031C3.12725 9.4378 3.08503 8.97681 3.41665 8.50174C3.70035 8.09521 4.17659 7.98646 4.6716 8.21989C4.76746 8.26513 4.85878 8.3216 4.94626 8.38226C6.73074 9.60839 9.18216 9.64224 10.9733 8.43739C11.1508 8.30133 11.3405 8.19039 11.5603 8.13375C11.9878 8.02399 12.3865 8.18101 12.6159 8.55503C12.878 8.98217 12.8746 9.39909 12.5517 9.73072C12.0564 10.2391 11.4606 10.607 10.7987 10.8637C10.1728 11.1063 9.48731 11.2285 8.8088 11.3096C8.91119 11.421 8.95945 11.4758 9.02346 11.5402C9.94478 12.4658 10.8701 13.3877 11.7884 14.3162C12.1013 14.6326 12.1666 15.0248 11.9944 15.3928C11.806 15.795 11.3844 16.0596 10.971 16.0313C10.7091 16.0132 10.5048 15.8828 10.3233 15.7C9.62807 15.0004 8.91974 14.3137 8.23855 13.6008C8.04032 13.3935 7.94497 13.4327 7.77002 13.6127C7.07057 14.3328 6.35973 15.0418 5.6447 15.7467C5.32363 16.0633 4.94156 16.1203 4.56922 15.9395C4.17341 15.7476 3.92155 15.3436 3.94099 14.9375C3.95439 14.6629 4.08946 14.4531 4.27798 14.2649C5.18974 13.3545 6.09899 12.4417 7.00857 11.5298C7.06873 11.4691 7.12487 11.4048 7.21251 11.3111Z" fill="white"/>
        <path d="M7.96805 8.09863C5.75525 8.09109 3.94078 6.25667 3.95368 4.04036C3.96642 1.79958 5.78207 -0.00618427 8.01665 1.59188e-05C10.2558 0.00604853 12.053 1.83779 12.0417 4.10186C12.0303 6.31365 10.2033 8.10634 7.96805 8.09863ZM9.97909 4.04572C9.97524 2.94527 9.09883 2.0692 8.00056 2.0682C6.89307 2.06702 6.00879 2.95901 6.01734 4.06952C6.02555 5.16578 6.9095 6.03565 8.01078 6.03162C9.10872 6.02777 9.98278 5.146 9.97909 4.04572Z" fill="white"/>
    </g>
    <defs>
        <clipPath id="clip0_84_15">
            <rect width="16" height="16" fill="white"/>
        </clipPath>
    </defs>
</svg>

<svg width="16" height="16" viewBox="0 0 16 16" fill="none" xmlns="http://www.w3.org/2000/svg"><g clip-path="url(#clip0_84_15)" fill="#fff"><path d="M7.213 11.311c-1.24-.13-2.36-.435-3.317-1.184-.119-.093-.241-.183-.35-.287-.419-.402-.461-.863-.13-1.338.284-.407.76-.516 1.256-.282.095.045.187.102.274.162 1.785 1.226 4.236 1.26 6.027.055.178-.136.367-.247.587-.303a.922.922 0 011.056.421c.262.427.259.844-.064 1.176a4.868 4.868 0 01-1.753 1.133c-.626.242-1.312.364-1.99.446.102.111.15.166.214.23.922.926 1.847 1.848 2.765 2.776.313.317.379.709.206 1.077-.188.402-.61.667-1.023.638-.262-.018-.466-.148-.648-.331-.695-.7-1.403-1.386-2.084-2.1-.199-.207-.294-.167-.469.013-.7.72-1.41 1.429-2.125 2.134-.321.316-.703.373-1.076.193-.396-.192-.647-.596-.628-1.002.013-.275.148-.485.337-.673.912-.91 1.821-1.823 2.73-2.735.06-.06.117-.125.205-.219z"/><path d="M7.968 8.099C5.755 8.09 3.941 6.257 3.954 4.04A4.056 4.056 0 018.017 0c2.239.006 4.036 1.838 4.025 4.102-.012 2.212-1.839 4.004-4.074 3.997zM9.98 4.046a1.972 1.972 0 00-1.978-1.978A1.975 1.975 0 006.017 4.07a1.972 1.972 0 001.994 1.962 1.968 1.968 0 001.968-1.986z"/></g><defs><clipPath id="clip0_84_15"><path fill="#fff" d="M0 0h16v16H0z"/></clipPath></defs></svg>
